X: 1
T: Apples In Winter
R: jig
M: 6/8
L: 1/8
%Z: Modified by Megan Ward
K: Edor
ed|BEE eEE|BAF GFE|DAD FDF|ABc ded|
BEE BAB|def ~g2 e|fdB AGF|GED E2:|
|:d|efe edB|e/f/ge fdB|ded dAF|DFA def|
[1efe edB|def ~g2a|bgb afa|ged e2:|
[2edB def|gba ~g2e|fdB AGF|GED E2||
